X:136
T:Colonel Montgomery
R:Strathspey
B:The Athole Collection
M:C
L:1/8
K:D
d>BA>F E>DEF|d>BA>F E>D B,2|d>BA>F E>DE>g|f>e d<f ef d2:|
A<d f>d g>ef>d|A<d f>d e>d B2|1 A>d f>d g>ef>d|e>fa>f ef d2:|2
A<d f>d g>ef>d|e/d/e/f/ a>f ef d2||

